X: 40223
T: Miss Ross's Strathspey
C: by Niel Gow
R: strathspey
B: Gows 4th Book p.22 #3
Z: 2012 John Chambers <jc:trillian.mit.edu>
M: C
L: 1/8
K: Bb
V: 1
G |\
M.F2 ~F>G F>G B>d | Tc>B d>B Tc>BG<B |\
M.F2 TF>G F>G B<g | (f<B){B}e>d Tc2 B :|
e |\
d<(ff)>g (f3/g//a//) b>d | Tc>B d>B Tc>B G>e |\
d<(ff)>g (f3/g//a//) b>d | Tc>B {B}e>d Tc2 B>e |
d<(ff)>g (f3/g//a//) b>d | Tc>B {B}d>B Tc>BG<B |\
FBDB TF>GB<g | (f<B) {B}e>d Tc2 B |]
V: 2 clef=bass middle=d
z |\
B2B2 B2B2 | d2B2 f2e2 | d2B2 B2e2 | d2gf e2d :|
z |\
B2b2 B2b2 | a2b2 f2e2 | d2B2 b2B2 | e2AB F2B2 |
B2b2 B2b2 | a2b2 f2e2 | d2B2 d2e2 | d2gf e2B |]
